X: 1
T:Black Mountain
M:6/8
L:1/8
C:Larry Mallette
R:double jig
K:ADor
G|EAA EBB|EAA G2E|EGA B2c|BAG ~A3|EAA EDE|GAB c2e|e=fe dcB|{c}BAG A2:|
e|e=fe d2e|dcB c2c|BAB ~d3|ede a2a|e=fe d2e|dcB ~A3|e2e dcB|{c}BAG A2e|
e=fe d2e|dcB c2c|BAB ~e3|geg a2e|e=fe d2e|dcB ~A3|e=fe dcB|{c}BAG A2||
